X: 2340
T: HORNPIPES
C: Carl Volti.
%R: hornpipe, reel
B: James Kerr "Merry Melodies" v.2 p.38 #340
Z: 2016 John Chambers <jc:trillian.mit.edu>
M: C
L: 1/8
K: A
(ucd) |\
(3(efe) uc>uA va>vaug>uf | e>f^d>f e>cA>c |\
B>c^A>c B>GE>G | A>EC>F E2 (cd) |\
(3(efe) c>A a>ag>f | e>f^d>f e>cA>c |\
B>c^d>e f>ga>d | e2e'2e2 :|
|: uc2 |\
(3(ded) uB>uG E>GB>c | A>cf>^d e2c2 |\
(3(ded) B>G E>GB>c | A>EC>F E2c2 |\
(3(ded) B>G E>GB>c | A>cf>^d e2a2 |\
g>fe>d c>BA>G | A2a2A2 :|

%%sep 1 1 500
%%sep 1 1 500

